public/img/mask.svg

<svg width="535" height="535" viewBox="0 0 535 535" fill="none" xmlns="http://www.w3.org/2000/svg">
<path fill-rule="evenodd" clip-rule="evenodd" d="M92.4018 242.09C89.5766 250.399 87.2606 258.856 85.4239 267.296L194.305 159.563C192.284 159.532 190.261 159.482 188.241 159.432C184.943 159.351 181.652 159.27 178.386 159.269L92.4018 242.09ZM101.431 219.843L161.109 160.504C152.629 161.982 144.541 165.104 137.177 171.464C122.065 184.516 110.278 201.355 101.431 219.843ZM206.054 159.404L82.2088 285.278C81.4024 290.867 80.6837 296.541 80.0945 302.249L228.46 154.743C221.259 157.776 213.719 158.986 206.054 159.404ZM265.206 118.211L333.748 50.0662C330.681 50.1457 327.553 50.5153 324.363 51.2044C302.12 56.0094 288.755 78.6807 275.004 102.007C271.798 107.445 268.571 112.919 265.206 118.211ZM345.854 51.2663L79.0406 314.583C78.6055 321.114 78.3778 327.64 78.4191 334.083L352.249 53.1435C350.154 52.3853 348.022 51.7554 345.854 51.2663ZM359.99 56.5976L78.8221 345.971C79.0147 349.014 79.2788 352.028 79.6213 355.002L371.273 64.0285C367.662 61.1814 363.899 58.6739 359.99 56.5976ZM374.996 67.1263L81.2709 365.87C82.1121 370.269 83.1587 374.55 84.4356 378.682L386.318 78.6229C382.746 74.485 378.969 70.6083 374.996 67.1263ZM395.335 90.154L87.338 386.821C89.2749 391.567 91.5748 396.063 94.2823 400.254L400.294 97.4699C398.703 95.0041 397.049 92.5587 395.335 90.154ZM403.413 102.452L101.361 409.454C101.506 409.612 101.651 409.77 101.798 409.927C103.893 412.173 106.11 414.237 108.438 416.13L410.765 115.557C410.394 114.791 410.006 114.032 409.601 113.279C407.673 109.698 405.609 106.068 403.413 102.452ZM413.852 123.164L113.17 419.645C117.508 422.584 122.162 425.015 127.065 426.991L415.822 130.23C415.276 127.831 414.624 125.474 413.852 123.164ZM417.392 139.291L135.591 429.912C138.252 430.675 140.969 431.325 143.732 431.87L418.354 157.932C418.389 151.566 418.143 145.327 417.392 139.291ZM418.2 165.349L154.351 433.439C159.092 433.922 163.929 434.143 168.82 434.134L417.035 187.33C417.129 185.7 417.227 184.07 417.324 182.442C417.667 176.705 418.009 170.99 418.2 165.349ZM416.278 207.038L180.997 433.664C188.639 433.104 196.33 432.063 203.916 430.665L416.628 220.197C416.338 215.858 416.244 211.463 416.278 207.038ZM417.561 228.841L223.862 425.714C238.468 419.845 250.544 407.075 262.71 394.21C275.186 381.017 287.757 367.724 303.248 361.67L421.119 244.483C419.614 239.245 418.369 234.023 417.561 228.841ZM424.164 254.215L319.106 357.897C324.027 357.364 329.029 357.323 334.067 357.594L426.959 262.29C426.005 259.6 425.065 256.907 424.164 254.215ZM432.974 279.264L354.577 359.948C356.618 360.264 358.656 360.59 360.688 360.915C362.664 361.232 364.635 361.547 366.596 361.85L436.886 291.724C435.736 287.604 434.4 283.446 432.974 279.264ZM439.1 300.805L377.589 363.367C384.049 364.105 390.353 364.473 396.4 364.053L440.71 320.01C441.1 313.768 440.431 307.348 439.1 300.805Z" fill="white"/>
</svg>

<svg width="535" height="535" fill="none" xmlns="http://www.w3.org/2000/svg"><path fill-rule="evenodd" clip-rule="evenodd" d="M92.402 242.09a231.051 231.051 0 00-6.978 25.206l108.881-107.733a644.847 644.847 0 01-6.064-.131c-3.298-.081-6.589-.162-9.855-.163L92.402 242.09zm9.029-22.247l59.678-59.339c-8.48 1.478-16.568 4.6-23.932 10.96-15.112 13.052-26.899 29.891-35.746 48.379zm104.623-60.439L82.209 285.278a423.476 423.476 0 00-2.115 16.971L228.46 154.743c-7.201 3.033-14.741 4.243-22.406 4.661zm59.152-41.193l68.542-68.145c-3.067.08-6.195.45-9.385 1.138-22.243 4.805-35.608 27.477-49.359 50.803-3.206 5.438-6.433 10.912-9.798 16.204zm80.648-66.945L79.041 314.583c-.435 6.531-.663 13.057-.622 19.5l273.83-280.94a53.167 53.167 0 00-6.395-1.877zm14.136 5.332L78.822 345.97c.193 3.043.457 6.057.8 9.031l291.65-290.973c-3.611-2.847-7.374-5.354-11.283-7.43zm15.006 10.528L81.271 365.87c.841 4.399 1.888 8.68 3.165 12.812l301.882-300.06c-3.572-4.137-7.349-8.014-11.322-11.496zm20.339 23.028L87.338 386.821c1.937 4.746 4.237 9.242 6.944 13.433L400.294 97.47a191.345 191.345 0 00-4.959-7.316zm8.078 12.298L101.361 409.454c.145.158.29.316.437.473a66.075 66.075 0 006.64 6.203l302.327-300.573a60.28 60.28 0 00-1.164-2.278 240.777 240.777 0 00-6.188-10.827zm10.439 20.712L113.17 419.645c4.338 2.939 8.992 5.37 13.895 7.346L415.822 130.23a74.285 74.285 0 00-1.97-7.066zm3.54 16.127L135.591 429.912a99.148 99.148 0 008.141 1.958l274.622-273.938c.035-6.366-.211-12.605-.962-18.641zm.808 26.058l-263.849 268.09c4.741.483 9.578.704 14.469.695L417.035 187.33c.094-1.63.192-3.26.289-4.888.343-5.737.685-11.452.876-17.093zm-1.922 41.689L180.997 433.664c7.642-.56 15.333-1.601 22.919-2.999l212.712-210.468c-.29-4.339-.384-8.734-.35-13.159zm1.283 21.803L223.862 425.714c14.606-5.869 26.682-18.639 38.848-31.504 12.476-13.193 25.047-26.486 40.538-32.54l117.871-117.187c-1.505-5.238-2.75-10.46-3.558-15.642zm6.603 25.374L319.106 357.897c4.921-.533 9.923-.574 14.961-.303l92.892-95.304a479.705 479.705 0 01-2.795-8.075zm8.81 25.049l-78.397 80.684c2.041.316 4.079.642 6.111.967 1.976.317 3.947.632 5.908.935l70.29-70.126c-1.15-4.12-2.486-8.278-3.912-12.46zm6.126 21.541l-61.511 62.562c6.46.738 12.764 1.106 18.811.686l44.31-44.043c.39-6.242-.279-12.662-1.61-19.205z" fill="#fff"/></svg>
